X:262
T:Green Grows The Rushes. JaW.262
M:C|
L:1/8
Q:1/2=80
S:James Winder Ms, Lancashire, 1835-41
R:.Reel
O:England
A:Wyresdale,Lancashire
Z:vmp.Chris Partington, Aug 2004
K:G
A|G/G/G BA BGGB|A/A/A e>d eAAB|\
c3e d/e/c/B/ GB|A/B/c B>A GEE:|!
|:A|G/G/G g>f gddg|e/e/e ag aeef|\
gag(e d/)c/B/A/ GB|A/B/c BA GEEA|!
G/G/G gf gddg|e/e/eag aeef|\
gbeg dgBg|A/B/c B>A GEE:|

